X:1
T:Title
%%score { ( 1 2 5 ) | ( 3 4 ) }
L:1/8
Q:1/4=124
M:3/4
K:A
V:1 treble nm="Grand Piano"
V:2 treble 
V:5 treble 
V:3 bass 
V:4 bass 
V:1
 c4 z2 | B6 | A4 z2 | E6 | E2 F2 G2 | A4 z2 | A4 z2 | G6 | d4 z2 | c6 | B4 z2 | F6 | G4 z2 | %13
w: J.~Lincoln~Hall|||||||||||||
 F2 G2 F2 | F6 | E6 | c4 z2 | B6 | A4 z2 | E6 | E2 F2 G2 | A2 B2 c2 | d4 z2 | F6 | F2 G2 F2 | E6 | %26
w: |||||||||||||
 [Ec]2 [Fd]2 [Ec]2 | A2- [A,A]2 E2 | F2 G2 A2 | B4 z2 | A6- | A6 | c4 z2 | B6 | A4 z2 | E6 | %36
w: ||||||||||
 [CE]2 [CF]2 [CG]2 | A2- [A,CA]2 [CB]2 | A4 z2 | G6 | d4 z2 | F6 | c4 z2 | E6 | F2 G2 A2 | B4 c2 | %46
w: ||||||||||
 A6- | A6 |] %48
w: ||
V:2
 z2 C2 c2 | z2 C2 C2 | z2 C2 A2 | z2 C2 C2 | x6 | z2 C2 B2 | z2 D2 G2 | z2 D2 D2 | z2 D2 d2 | %9
 z2 D2 D2 | z2 D2 B2 | z2 D2 D2 | z2 D2 G2 | x6 | z2 C2 C2 | z2 C2 C2 | z2 C2 c2 | z2 C2 C2 | %18
 z2 C2 A2 | z2 C2 C2 | x6 | x6 | z2 D2 d2 | z2 D2 D2 | x6 | z2 [A,C]2 [A,C]2 | x6 | C6 | x6 | %29
 z2 D2 [DEc]2 | z2 z2 C2- | C6 | C2 [A,C]2 [Cc]2 | C2 [A,C]2 [A,C]2 | C2 [A,C]2 [CA]2 | %35
 C2 [A,C]2 [A,C]2 | x6 | C2 z2 z2 | z2 D2 G2 | z2 D2 D2 | z2 F2 d2 | z2 D2 D2 | C2 C2 [Cc]2 | %43
 C2 C2 C2 | x6 | x6 | [A,C]4 D2 | C6 |] %48
V:3
 A,,2 [E,A,]2 [E,A,C]2 | A,,2 [E,A,]2 [E,A,]2 | A,,2 [E,A,]2 [E,A,C]2 | A,,2 [E,A,]2 [E,A,]2 | %4
 A,,2 [E,A,C]2 [E,A,C]2 | A,,2 [E,A,]2 [E,A,C]2 | E,2 G,2 [G,D]2 | E,2 G,2 G,2 | E,2 G,2 [G,D]2 | %9
 E,2 G,2 G,2 | E,2 G,2 [G,D]2 | E,2 G,2 G,2 | E,2 G,2 [G,D]2 | E,2 [G,D]2 [G,D]2 | %14
 A,,2 [E,A,]2 [E,A,]2 | A,,2 [E,A,]2 [E,A,]2 | A,,2 [E,A,]2 [E,A,C]2 | A,,2 [E,A,]2 [E,A,]2 | %18
 A,,2 [E,A,]2 [E,A,C]2 | A,,2 [E,A,]2 [E,A,]2 | A,,2 [E,A,C]2 [E,A,C]2 | A,,2 [E,A,C]2 [E,A,C]2 | %22
 D,2 [F,A,]2 [F,A,D]2 | D,2 [F,A,]2 [F,A,]2 | D,2 [F,A,D]2 [F,A,D]2 | A,,2 E,2 E,2 | %26
 A,,2 [E,A,C]2 [E,A,C]2 | A,,2 E,2 [E,A,]2 | D4 z2 | [E,D]2 G,2 G,2 | A,,2 [E,A,]2 [E,A,]2 | %31
 [A,,E,]6 | [A,,E,A,]2 [A,,E,]2 [A,,E,A,]2 | [A,,E,A,]2 [A,,E,]2 [A,,E,]2 | %34
 [A,,E,A,]2 [A,,E,]2 [A,,E,A,]2 | [A,,E,A,]2 [A,,E,]2 [A,,E,]2 | [A,,E,A,]2 [A,,E,A,]2 [A,,E,A,]2 | %37
 [A,,E,A,]2 [A,,E,]2 [A,,E,A,]2 | [E,B,D]2 [E,B,]2 [E,B,D]2 | [E,B,D]2 [E,B,]2 [E,B,]2 | %40
 [E,B,DF]2 [E,B,D]2 [E,B,DF]2 | [E,B,D]2 [E,B,]2 [E,B,]2 | [A,,A,]2 [A,,A,]2 [A,,A,]2 | %43
 [A,,A,]2 [A,,A,]2 [A,,A,]2 | D4 z2 | [E,G,D]4 [E,G,E]2 | z2 z2 F,2 | E,6 |] %48
V:4
 x6 | x6 | x6 | x6 | x6 | x6 | x6 | x6 | x6 | x6 | x6 | x6 | x6 | x6 | x6 | x6 | x6 | x6 | x6 | %19
 x6 | x6 | x6 | x6 | x6 | x6 | x6 | x6 | x6 | D,2 [F,A,]2 [F,A,D]2 | x6 | x6 | x6 | x6 | x6 | x6 | %35
 x6 | x6 | x6 | x6 | x6 | x6 | x6 | x6 | x6 | [D,A,]2 [F,A,]2 [F,A,D]2 | x6 | A,,6- | A,,6 |] %48
V:5
 x6 | x6 | x6 | x6 | x6 | x6 | x6 | x6 | x6 | x6 | x6 | x6 | x6 | x6 | x6 | x6 | x6 | x6 | x6 | %19
 x6 | x6 | x6 | x6 | x6 | x6 | x6 | x6 | x6 | x6 | x6 | C2 C2 z2 | A,6 | x6 | x6 | x6 | x6 | x6 | %37
 x6 | x6 | x6 | x6 | x6 | x6 | x6 | x6 | x6 | x6 | x6 |] %48

